X:1
T:Title
%%score { ( 1 3 ) | ( 2 4 ) }
L:1/8
Q:1/4=100
M:4/4
K:F
V:1 treble nm="Grand Piano"
V:3 treble 
V:2 treble 
V:4 treble 
V:1
 A2 FG A2 B2 | A3 G F4 | G2 GA B2 E2 |[M:3/4] F2 G2 A2 |[M:1/4] AB |[M:4/4] c3 B A2 G2 | %6
w: L.~H.~Baker * * * *||||||
 ABcd c2 FG | A3 B A2 G2 | F8 | c2 FG A2 B2 | [Ac]4 z4 | [CAc]2 FG A2 B2 | %12
w: ||||||
[M:7/8] [EG]2 [FA]2 [GB]3 |[M:1/4] [CFA][GB] |[M:4/4] [Fc]3 [B,FB] [FA]3 [B,FB] | %15
w: |||
 [A,Fc]3 [B,FB] [CFA]4 | [A,CF]2 [A,CF][B,DG] [CEA]2 [B,EG]2 | [A,CF]8 |] %18
w: |||
V:2
 C2 A,B, C2 D2 | C3[K:bass] B, A,4 | B,2 B,C D2 G,2 |[M:3/4] A,2 B,2 C2 |[M:1/4] A,G, | %5
[M:4/4] A,3 G, F,2 E,2 | F,G,A,B, A,2 A,B, | C3 D C2 B,2 | A,8 | [F,A,F]2 CC [F,CF]2 G2 | %10
 [F,A,]C, .A,,>E F,4 | z2 C6- |[M:7/8] C-C-C- C- C3 |[M:1/4] z B, |[M:4/4] [F,A,]3 C, A,,3 G,, | %15
 F,,G,,A,,C, F,4 | F,2 A,,B,, C,2 C,2 | F,8 |] %18
V:3
 x8 | x8 | x8 |[M:3/4] x6 |[M:1/4] x2 |[M:4/4] x8 | x8 | x8 | x8 | x8 | z B,C.[DGB] [FA]4 | x8 | %12
[M:7/8] x7 |[M:1/4] x2 |[M:4/4] x8 | x8 | x8 | x8 |] %18
V:4
 x8 | x3[K:bass] x5 | x8 |[M:3/4] x6 |[M:1/4] x2 |[M:4/4] x8 | x8 | x8 | x8 | x8 | z2 z C, z4 | %11
 F,2 z E [F,F]2 F2 |[M:7/8] C,C,F, F, C,3 |[M:1/4] F,2 |[M:4/4] x8 | x8 | x8 | x8 |] %18

